X: 86
T:Meillionen
M:4/4
L:1/8
Q:100
C:Trad
S:Dawnswyr Taweryn
R:Set Dance
A:Wales
Z:brian_martin12345@yahoo.com
K:C
G|c2ed/c/ B/c/d/e/ ff|ee f/e/d/c/ B3/4c/4d/e/ f/d/c/B/|cg ed/c/ B/c/d/e/
 fg/f/|!ee d/e/f/d/ cB c:||
e/f/|gc Bc d3 e/f/| ge f/e/d/c/ B/c/d/e/ f3/4d/4c/B/|!c>d ef g/f/e/d/ 
\"aed/e/|f>g ag f/g/f/e/ de/f/|ee f/e/d/c/ B/c/d/e/ fg/f/|ee d/e/f/d/ cB c
:||
